assets/logos/LogoPetVetor.svg

<svg width="472" height="470" viewBox="0 0 472 470" fill="none" xmlns="http://www.w3.org/2000/svg">
<g filter="url(#filter0_iiii_34_2)">
<path d="M300.5 461.5L322.5 453L332.5 448.5L342 444L301.5 347L260 248.5L158.5 457.5L168.5 461.5L181.5 464.5L193.5 467L205 468.5L216.5 469.5L229 470H240.5L252.5 469.5L265 468.5L276.5 466.5L300.5 461.5Z" fill="white"/>
<path d="M87.5 418.5L221 165.5L199 115L192 101L185.5 89L181 81.5L177 76L168.5 66L158 60L146.5 55.5L133.5 53H123L112.25 53.75L101.5 54.5L89.5 56.5L79.5 60L71 66L63 73L55 81.5L45.5 93.5L35 110.5L23 132.5L11.5 158L3.5 189L0 218.5V248.5L2 272L7 295.5L14 318L24.5 342L37.5 363.5L51.5 382.5L67 400.5L77 411L87.5 418.5Z" fill="white"/>
<path d="M428 102.5L405.5 73.5L376.5 48L345.5 27.5L308 11.5L286.5 6L267.5 2.5L247 0H228L206.5 2.5L188 6L203 10.5L217 16.5L229.5 24.5L241.5 34L251.5 44.5L261.5 57L269.5 69L276.5 81.5L283.5 94.5L290 109L302 135.5L324 188.5L368 290.5L411 391L424.5 373.5L434 360L450 332L462 299L468.5 264.5L471.5 231L467 197.5L459 163.5L453 146.5L446 131.5L437 116L428 102.5Z" fill="white"/>
</g>
<path d="M423.695 372.907L411.249 389.04L368.919 290.107L368.918 290.104L324.924 188.117L324.918 188.104L302.924 135.117L302.918 135.102L302.911 135.087L290.913 108.591L290.911 108.587L284.413 94.0909L284.398 94.0578L284.38 94.0259L277.38 81.0259L277.377 81.0186L277.372 81.0114L270.372 68.5114L270.354 68.4776L270.332 68.4453L262.332 56.4453L262.308 56.4092L262.281 56.3753L252.281 43.8753L252.254 43.8416L252.224 43.8103L242.224 33.3103L242.176 33.2595L242.121 33.216L230.121 23.716L230.081 23.6848L230.039 23.6577L217.539 15.6577L217.47 15.6133L217.394 15.5809L203.394 9.58086L203.342 9.55849L203.287 9.54217L192.215 6.22037L206.651 3.48919L228.058 1H246.939L267.349 3.48897L286.285 6.97726L307.678 12.4498L345.024 28.3841L375.891 48.7963L404.768 74.1881L427.188 103.085L436.151 116.529L445.113 131.963L452.073 146.879L458.039 163.782L466.015 197.682L470.494 231.022L467.508 264.363L461.032 298.735L449.089 331.578L433.155 359.463L423.695 372.907ZM332.072 447.596L322.114 452.077L300.216 460.538L276.312 465.518L264.874 467.507L252.439 468.502L240.479 469H229.02L216.563 468.502L205.108 467.506L193.667 466.013L181.725 463.526L181.704 463.521L168.8 460.543L159.869 456.971L259.935 250.922L300.577 347.385L300.578 347.388L340.71 443.505L332.09 447.588L332.072 447.596ZM219.891 165.459L87.1498 417.021L77.6587 410.242L67.7413 399.828L52.2825 381.876L38.3321 362.944L25.3898 341.539L14.9384 317.65L7.96853 295.247L2.9911 271.853L1 248.458V218.559L4.4851 189.185L12.4468 158.333L23.896 132.946L35.865 111.003L46.3202 94.0751L55.7575 82.1542L63.695 73.7207L71.6193 66.7869L79.9624 60.8976L89.7492 57.4723L101.617 55.4942L112.32 54.7476L123.035 54H133.405L146.221 56.4647L157.567 60.9046L167.852 66.7812L176.214 76.6188L180.165 82.0523L184.631 89.4958L191.113 101.462L198.094 115.424L219.891 165.459Z" stroke="white" stroke-width="2"/>
<defs>
<filter id="filter0_iiii_34_2" x="-4" y="-4" width="479.5" height="478" filterUnits="userSpaceOnUse" color-interpolation-filters="sRGB">
<feFlood flood-opacity="0" result="BackgroundImageFix"/>
<feBlend mode="normal" in="SourceGraphic" in2="BackgroundImageFix" result="shape"/>
<feColorMatrix in="SourceAlpha" type="matrix" values="0 0 0 0 0 0 0 0 0 0 0 0 0 0 0 0 0 0 127 0" result="hardAlpha"/>
<feOffset dx="-4"/>
<feGaussianBlur stdDeviation="2"/>
<feComposite in2="hardAlpha" operator="arithmetic" k2="-1" k3="1"/>
<feColorMatrix type="matrix" values="0 0 0 0 0 0 0 0 0 0 0 0 0 0 0 0 0 0 0.25 0"/>
<feBlend mode="normal" in2="shape" result="effect1_innerShadow_34_2"/>
<feColorMatrix in="SourceAlpha" type="matrix" values="0 0 0 0 0 0 0 0 0 0 0 0 0 0 0 0 0 0 127 0" result="hardAlpha"/>
<feOffset dy="-4"/>
<feGaussianBlur stdDeviation="2"/>
<feComposite in2="hardAlpha" operator="arithmetic" k2="-1" k3="1"/>
<feColorMatrix type="matrix" values="0 0 0 0 0 0 0 0 0 0 0 0 0 0 0 0 0 0 0.25 0"/>
<feBlend mode="normal" in2="effect1_innerShadow_34_2" result="effect2_innerShadow_34_2"/>
<feColorMatrix in="SourceAlpha" type="matrix" values="0 0 0 0 0 0 0 0 0 0 0 0 0 0 0 0 0 0 127 0" result="hardAlpha"/>
<feOffset dx="4"/>
<feGaussianBlur stdDeviation="2"/>
<feComposite in2="hardAlpha" operator="arithmetic" k2="-1" k3="1"/>
<feColorMatrix type="matrix" values="0 0 0 0 0 0 0 0 0 0 0 0 0 0 0 0 0 0 0.25 0"/>
<feBlend mode="normal" in2="effect2_innerShadow_34_2" result="effect3_innerShadow_34_2"/>
<feColorMatrix in="SourceAlpha" type="matrix" values="0 0 0 0 0 0 0 0 0 0 0 0 0 0 0 0 0 0 127 0" result="hardAlpha"/>
<feOffset dy="4"/>
<feGaussianBlur stdDeviation="2"/>
<feComposite in2="hardAlpha" operator="arithmetic" k2="-1" k3="1"/>
<feColorMatrix type="matrix" values="0 0 0 0 0 0 0 0 0 0 0 0 0 0 0 0 0 0 0.25 0"/>
<feBlend mode="normal" in2="effect3_innerShadow_34_2" result="effect4_innerShadow_34_2"/>
</filter>
</defs>
</svg>

<svg xmlns="http://www.w3.org/2000/svg" width="472" height="470" fill="none"><g fill="#fff" filter="url(#a)"><path d="m300.5 461.5 22-8.5 10-4.5 9.5-4.5-40.5-97-41.5-98.5-101.5 209 10 4 13 3 12 2.5 11.5 1.5 11.5 1 12.5.5h11.5l12-.5 12.5-1 11.5-2 24-5Zm-213-43 133.5-253-22-50.5-7-14-6.5-12-4.5-7.5-4-5.5-8.5-10-10.5-6-11.5-4.5-13-2.5H123l-10.75.75-10.75.75-12 2-10 3.5-8.5 6-8 7-8 8.5-9.5 12-10.5 17-12 22L11.5 158l-8 31L0 218.5v30L2 272l5 23.5 7 22.5 10.5 24 13 21.5 14 19 15.5 18L77 411l10.5 7.5Zm340.5-316-22.5-29-29-25.5-31-20.5-37.5-16L286.5 6l-19-3.5L247 0h-19l-21.5 2.5L188 6l15 4.5 14 6 12.5 8 12 9.5 10 10.5 10 12.5 8 12 7 12.5 7 13L290 109l12 26.5 22 53 44 102L411 391l13.5-17.5L434 360l16-28 12-33 6.5-34.5 3-33.5-4.5-33.5-8-34-6-17-7-15-9-15.5-9-13.5Z"/></g><path stroke="#fff" stroke-width="2" d="m423.695 372.907-12.446 16.133-42.33-98.933-.001-.003-43.994-101.987-.006-.013-21.994-52.987-.006-.015-.007-.015-11.998-26.496-.002-.004-6.498-14.496-.015-.033-.018-.032-7-13-.003-.007-.005-.008-7-12.5-.018-.033-.022-.033-8-12-.024-.036-.027-.034-10-12.5-.027-.033-.03-.032-10-10.5-.048-.05-.055-.044-12-9.5-.04-.031-.042-.027-12.5-8-.069-.045-.076-.032-14-6-.052-.023-.055-.016-11.072-3.322 14.436-2.73L228.058 1h18.881l20.41 2.489 18.936 3.488 21.393 5.473 37.346 15.934 30.867 20.412 28.877 25.392 22.42 28.897 8.963 13.444 8.962 15.434 6.96 14.916 5.966 16.903 7.976 33.9 4.479 33.34-2.986 33.341-6.476 34.372-11.943 32.843-15.934 27.885-9.46 13.444Zm-91.623 74.689-9.958 4.481-21.898 8.461-23.904 4.98-11.438 1.989-12.435.995-11.96.498H229.02l-12.457-.498-11.455-.996-11.441-1.493-11.942-2.487-.021-.005-12.904-2.978-8.931-3.572 100.066-206.049 40.642 96.463.001.003 40.132 96.117-8.62 4.083-.018.008ZM219.891 165.459 87.15 417.021l-9.491-6.779-9.918-10.414-15.459-17.952-13.95-18.932-12.942-21.405-10.452-23.889-6.97-22.403-4.977-23.394L1 248.458v-29.899l3.485-29.374 7.962-30.852 11.449-25.387 11.969-21.943L46.32 94.075l9.438-11.92 7.937-8.434 7.924-6.934 8.343-5.89 9.787-3.425 11.868-1.978 10.703-.746L123.035 54h10.37l12.816 2.465 11.346 4.44 10.285 5.876 8.362 9.838 3.951 5.433 4.466 7.444 6.482 11.966 6.981 13.962 21.797 50.035Z"/><defs><filter id="a" width="479.5" height="478" x="-4" y="-4" color-interpolation-filters="sRGB" filterUnits="userSpaceOnUse"><feFlood flood-opacity="0" result="BackgroundImageFix"/><feBlend in="SourceGraphic" in2="BackgroundImageFix" result="shape"/><feColorMatrix in="SourceAlpha" result="hardAlpha" values="0 0 0 0 0 0 0 0 0 0 0 0 0 0 0 0 0 0 127 0"/><feOffset dx="-4"/><feGaussianBlur stdDeviation="2"/><feComposite in2="hardAlpha" k2="-1" k3="1" operator="arithmetic"/><feColorMatrix values="0 0 0 0 0 0 0 0 0 0 0 0 0 0 0 0 0 0 0.25 0"/><feBlend in2="shape" result="effect1_innerShadow_34_2"/><feColorMatrix in="SourceAlpha" result="hardAlpha" values="0 0 0 0 0 0 0 0 0 0 0 0 0 0 0 0 0 0 127 0"/><feOffset dy="-4"/><feGaussianBlur stdDeviation="2"/><feComposite in2="hardAlpha" k2="-1" k3="1" operator="arithmetic"/><feColorMatrix values="0 0 0 0 0 0 0 0 0 0 0 0 0 0 0 0 0 0 0.25 0"/><feBlend in2="effect1_innerShadow_34_2" result="effect2_innerShadow_34_2"/><feColorMatrix in="SourceAlpha" result="hardAlpha" values="0 0 0 0 0 0 0 0 0 0 0 0 0 0 0 0 0 0 127 0"/><feOffset dx="4"/><feGaussianBlur stdDeviation="2"/><feComposite in2="hardAlpha" k2="-1" k3="1" operator="arithmetic"/><feColorMatrix values="0 0 0 0 0 0 0 0 0 0 0 0 0 0 0 0 0 0 0.25 0"/><feBlend in2="effect2_innerShadow_34_2" result="effect3_innerShadow_34_2"/><feColorMatrix in="SourceAlpha" result="hardAlpha" values="0 0 0 0 0 0 0 0 0 0 0 0 0 0 0 0 0 0 127 0"/><feOffset dy="4"/><feGaussianBlur stdDeviation="2"/><feComposite in2="hardAlpha" k2="-1" k3="1" operator="arithmetic"/><feColorMatrix values="0 0 0 0 0 0 0 0 0 0 0 0 0 0 0 0 0 0 0.25 0"/><feBlend in2="effect3_innerShadow_34_2" result="effect4_innerShadow_34_2"/></filter></defs></svg>
